X: 32683
T: Polca Mhary Keane
R: polka
M: 2/4
K: Gmajor
|:Bd ed|dB GA|Bd eg|ba a2|
ag/a/ ba|gb eg|Bd e/f/g|1 BG GA:|2 BG gf||
|:e>f ed|eg ab|Bd ed|BG A2|
e>f ed|e/f/g ab|Bd e/f/g|1 BG gf:|2 BG GA||

